src/icons/main-reorder.svg

<?xml version="1.0" encoding="UTF-8"?>
<svg width="12px" height="13px" viewBox="0 0 12 13" version="1.1" xmlns="http://www.w3.org/2000/svg" xmlns:xlink="http://www.w3.org/1999/xlink">
    <!-- Generator: Sketch 59 (86127) - https://sketch.com -->
    <title>HDL/Icon/Standard/reorder_2</title>
    <desc>Created with Sketch.</desc>
    <g id="Colors" stroke="none" stroke-width="1" fill="none" fill-rule="evenodd">
        <g id="Main-Icons" transform="translate(-618.000000, -1253.000000)" fill="#4D5969">
            <g id="Reorder-2" transform="translate(601.000000, 1235.000000)">
                <g id="HDL/Icon/Standard/reorder" transform="translate(17.000000, 18.000000)">
                    <path d="M6,0 C5.87935758,0 5.75808084,0.0422575621 5.66589339,0.127659136 L4.1188623,1.56081397 C3.87125414,1.79019581 4.04695529,2.18345347 4.3970679,2.18345347 L7.60163209,2.18345347 C7.95241031,2.18345347 8.12874593,1.79019581 7.88113777,1.56081397 L6.33410661,0.127659136 C6.24191916,0.0422575621 6.12064242,0 6,0 Z M0.675093325,3.4166892 C0.43504925,3.41354427 0.211772287,3.5303783 0.0907595516,3.72245325 C-0.0302531839,3.91452821 -0.0302531839,4.15208591 0.0907595516,4.34416087 C0.211772287,4.53623582 0.43504925,4.65306985 0.675093325,4.64992492 L11.3249067,4.64992492 C11.5649507,4.65306985 11.7882277,4.53623582 11.9092404,4.34416087 C12.0302532,4.15208591 12.0302532,3.91452821 11.9092404,3.72245325 C11.7882277,3.5303783 11.5649507,3.41354427 11.3249067,3.4166892 L0.675093325,3.4166892 Z M0.675093325,5.88316065 C0.43504925,5.88001572 0.211772287,5.99684975 0.0907595516,6.1889247 C-0.0302531839,6.38099966 -0.0302531839,6.61855736 0.0907595516,6.81063232 C0.211772287,7.00270727 0.43504925,7.1195413 0.675093325,7.11639637 L11.3249067,7.11639637 C11.5649507,7.1195413 11.7882277,7.00270727 11.9092404,6.81063232 C12.0302532,6.61855736 12.0302532,6.38099966 11.9092404,6.1889247 C11.7882277,5.99684975 11.5649507,5.88001572 11.3249067,5.88316065 L0.675093325,5.88316065 Z M0.675093325,8.3496321 C0.43504925,8.34648717 0.211772287,8.4633212 0.0907595516,8.65539616 C-0.0302531839,8.84747111 -0.0302531839,9.08502881 0.0907595516,9.27710377 C0.211772287,9.46917872 0.43504925,9.58601275 0.675093325,9.58286782 L11.3249067,9.58286782 C11.5649507,9.58601275 11.7882277,9.46917872 11.9092404,9.27710377 C12.0302532,9.08502881 12.0302532,8.84747111 11.9092404,8.65539616 C11.7882277,8.4633212 11.5649507,8.34648717 11.3249067,8.3496321 L0.675093325,8.3496321 Z M4.3970679,10.8161036 C4.04695529,10.8161036 3.87125414,11.2093615 4.1188623,11.4387433 L5.66589339,12.8718976 C5.85026828,13.0427008 6.14973172,13.0427008 6.33410661,12.8718976 L7.88113777,11.4387433 C8.12874593,11.2093615 7.95241031,10.8161036 7.60163209,10.8161036 L4.3970679,10.8161036 Z" id="Shape"></path>
                </g>
            </g>
        </g>
    </g>
</svg>

<?xml version="1.0" encoding="utf-8"?>
<!-- Generator: Adobe Illustrator 20.1.0, SVG Export Plug-In . SVG Version: 6.00 Build 0)  -->
<svg version="1.1" id="Layer_1" xmlns="http://www.w3.org/2000/svg" xmlns:xlink="http://www.w3.org/1999/xlink" x="0px" y="0px"
	 viewBox="0 0 12 13" style="enable-background:new 0 0 12 13;" xml:space="preserve">
<style type="text/css">
	.st0{fill:#4D5969;}
</style>
<title>HDL/Icon/Standard/reorder_2</title>
<desc>Created with Sketch.</desc>
<g id="Colors">
	<g id="Main-Icons" transform="translate(-618.000000, -1253.000000)">
		<g id="Reorder-2" transform="translate(601.000000, 1235.000000)">
			<g id="HDL_x2F_Icon_x2F_Standard_x2F_reorder" transform="translate(17.000000, 18.000000)">
				<path id="Shape" class="st0" d="M6,0C5.9,0,5.8,0,5.7,0.1L4.1,1.6C3.9,1.8,4,2.2,4.4,2.2h3.2c0.4,0,0.5-0.4,0.3-0.6L6.3,0.1
					C6.2,0,6.1,0,6,0z M0.7,3.4c-0.2,0-0.5,0.1-0.6,0.3C0,3.9,0,4.2,0.1,4.3c0.1,0.2,0.3,0.3,0.6,0.3h10.6c0.2,0,0.5-0.1,0.6-0.3
					c0.1-0.2,0.1-0.4,0-0.6c-0.1-0.2-0.3-0.3-0.6-0.3H0.7z M0.7,5.9C0.4,5.9,0.2,6,0.1,6.2C0,6.4,0,6.6,0.1,6.8
					C0.2,7,0.4,7.1,0.7,7.1h10.6c0.2,0,0.5-0.1,0.6-0.3c0.1-0.2,0.1-0.4,0-0.6c-0.1-0.2-0.3-0.3-0.6-0.3H0.7z M0.7,8.3
					c-0.2,0-0.5,0.1-0.6,0.3C0,8.8,0,9.1,0.1,9.3c0.1,0.2,0.3,0.3,0.6,0.3h10.6c0.2,0,0.5-0.1,0.6-0.3c0.1-0.2,0.1-0.4,0-0.6
					c-0.1-0.2-0.3-0.3-0.6-0.3H0.7z M4.4,10.8c-0.4,0-0.5,0.4-0.3,0.6l1.5,1.4c0.2,0.2,0.5,0.2,0.7,0l1.5-1.4
					c0.2-0.2,0.1-0.6-0.3-0.6H4.4z"/>
			</g>
		</g>
	</g>
</g>
</svg>
